do
  bpm 180
  let mx = [0, 1, 1, 1.2]
  d1 $ lsp 64 "lp_complete:9" * shape 0.2 * g (mx!!0)
  d2 $ shuffle 3 $ lsp 64 "lp_complete:11" * shape 0.3 * g (mx!!1)
  d3 $ wm32 128 (# g 0) $ sl 4 $ stack [
      struct "[t t?0.1] [t <~ t/4 t>] t [t t?0.25]" $
        s "os_boom*4" * shape 0.2 * distort 0.3,
      fa 4 $ s "~ osd_cymbal:1" # cut "-1"
    ] * g (mx!!2)
  d4 $ lsp 16 "lp_complete:15" * g (mx!!3) * shape 0.3 * distort 0.2
