d1 $ slow 2 $ (s "landr-k*4" |> crush 16 + up "[0 12]*2" |> n 2)

d2 $ slow 4 $ (0.5 <~) $ s "hh*8" |> crush 10 |> speed (choose [0.5, 0.51..2.5]) |> pan (slow 2 $ sine)

d3 $ s "ewavfm-sn/2"

setcps (120/60)

resetCycles
